lib/svgs/switch.svg

<?xml version="1.0" encoding="UTF-8"?>
<svg width="16px" height="16px" viewBox="0 0 16 16" version="1.1" xmlns="http://www.w3.org/2000/svg" xmlns:xlink="http://www.w3.org/1999/xlink">
    <!-- Generator: sketchtool 51.3 (57544) - http://www.bohemiancoding.com/sketch -->
    <title>app/switch</title>
    <desc>Created with sketchtool.</desc>
    <defs></defs>
    <g id="Icons" stroke="none" stroke-width="1" fill="none" fill-rule="evenodd">
        <g id="Web" transform="translate(-148.000000, -504.000000)" fill="#000000">
            <g id="app/switch" transform="translate(148.000000, 504.000000)">
                <path d="M11.3823256,12.6172093 C13.9231357,12.6172093 16,10.540345 16,7.99953488 C16,5.45886169 13.9232726,3.3827907 11.3823256,3.3827907 L4.61674419,3.3827907 C2.07593409,3.3827907 0,5.45872479 0,7.99953488 C0,10.5404819 2.07607099,12.6172093 4.61674419,12.6172093 L11.3823256,12.6172093 M11.3823256,11.5009302 L4.61674419,11.5009302 C2.69265391,11.5009302 1.11627907,9.92405702 1.11627907,7.99953488 C1.11627907,6.0752287 2.692438,4.49906977 4.61674419,4.49906977 L11.3823256,4.49906977 C13.3068477,4.49906977 14.8837209,6.0754446 14.8837209,7.99953488 C14.8837209,9.92384107 13.3066318,11.5009302 11.3823256,11.5009302 M4.61693023,6.08865116 C3.56143949,6.08865116 2.70530233,6.944382 2.70530233,8.00027907 C2.70530233,9.05544922 3.5616427,9.91097674 4.61693023,9.91097674 C5.67221777,9.91097674 6.52855814,9.05544922 6.52855814,8.00027907 C6.52855814,6.944382 5.67242097,6.08865116 4.61693023,6.08865116 M4.61693023,7.20493023 C5.05603566,7.20493023 5.41227907,7.56100456 5.41227907,8.00027907 C5.41227907,8.43870788 5.05595105,8.79469767 4.61693023,8.79469767 C4.17790942,8.79469767 3.8215814,8.43870788 3.8215814,8.00027907 C3.8215814,7.56100456 4.1778248,7.20493023 4.61693023,7.20493023" id="Shape"></path>
            </g>
        </g>
    </g>
</svg>

<svg xmlns="http://www.w3.org/2000/svg" viewBox="0 0 16 16">
    <path d="M11.382 12.617A4.63 4.63 0 0 0 16 8a4.629 4.629 0 0 0-4.618-4.617H4.617A4.628 4.628 0 0 0 0 8a4.629 4.629 0 0 0 4.617 4.617h6.765m0-1.116H4.617A3.513 3.513 0 0 1 1.117 8c0-1.925 1.575-3.5 3.5-3.5h6.765A3.513 3.513 0 0 1 14.884 8a3.514 3.514 0 0 1-3.502 3.5M4.617 6.09a1.912 1.912 0 1 0 0 3.823 1.912 1.912 0 0 0 0-3.823m0 1.116a.795.795 0 1 1 0 1.59.795.795 0 0 1 0-1.59"/>
</svg>
